X: 1
T: Memories Of Father Angus MacDonnell
M: 4/4
L: 1/8
R: barndance
K: Gmaj
(3DEF | G2 G>A G>FE<D | B<dd>B d2 (3dBd | e>cd>B c>AB<G | E4-E2 (3DEF |
G2 G>A G>FE<D | B<dd>B d2 g>e | d>BG<B A>GA<B | G4-G2 :|
B>d | e2 e>f g>fe<d | B<dd>B d2 (3dBd | e>cd>B c>AB<G | E4-E2 (3DEF |
G2 G>A G>FE<D | B<dd>B d2 g>e | d>BG<B A>GA<B | G4-G2 :|
